svg/aws-ec2-r5n.svg

<?xml version="1.0" encoding="UTF-8"?>
<svg xmlns="http://www.w3.org/2000/svg" xmlns:xlink="http://www.w3.org/1999/xlink" width="32" height="32" viewBox="0 0 32 32">
<path fill-rule="evenodd" fill="rgb(83.137255%, 35.686275%, 2.745098%)" fill-opacity="1" d="M 20.21875 19.257812 L 19.117188 19.257812 L 19.117188 14.503906 L 20.03125 14.503906 L 20.144531 15.027344 C 20.730469 14.585938 21.339844 14.367188 21.972656 14.367188 C 22.425781 14.367188 22.773438 14.484375 23.007812 14.726562 C 23.246094 14.964844 23.363281 15.3125 23.363281 15.765625 L 23.363281 19.257812 L 22.261719 19.257812 L 22.261719 16.109375 C 22.261719 15.804688 22.199219 15.582031 22.074219 15.441406 C 21.953125 15.300781 21.753906 15.234375 21.480469 15.234375 C 21.066406 15.234375 20.644531 15.371094 20.21875 15.644531 Z M 15.832031 19.394531 C 15.214844 19.394531 14.605469 19.269531 14.039062 19.023438 L 14.039062 18.144531 C 14.71875 18.375 15.308594 18.492188 15.800781 18.492188 C 16.726562 18.492188 17.183594 18.09375 17.183594 17.296875 C 17.183594 16.910156 17.070312 16.628906 16.835938 16.453125 C 16.605469 16.273438 16.234375 16.1875 15.730469 16.1875 C 15.351562 16.1875 14.878906 16.214844 14.3125 16.277344 L 14.3125 15.570312 L 14.488281 12.789062 L 17.996094 12.789062 L 17.996094 13.675781 L 15.527344 13.675781 L 15.421875 15.402344 C 15.675781 15.351562 15.945312 15.324219 16.230469 15.324219 C 16.878906 15.324219 17.386719 15.5 17.757812 15.851562 C 18.128906 16.199219 18.316406 16.675781 18.316406 17.277344 C 18.316406 17.925781 18.089844 18.4375 17.644531 18.824219 C 17.195312 19.203125 16.589844 19.394531 15.832031 19.394531 M 9.773438 13.664062 L 10.933594 13.664062 C 11.640625 13.664062 11.996094 14.023438 11.996094 14.738281 C 11.996094 15.453125 11.632812 15.8125 10.90625 15.8125 L 9.773438 15.8125 Z M 9.773438 16.6875 L 10.914062 16.6875 L 12.425781 19.257812 L 13.5625 19.257812 L 11.894531 16.492188 C 12.304688 16.332031 12.617188 16.097656 12.832031 15.792969 C 13.046875 15.488281 13.152344 15.125 13.152344 14.703125 C 13.152344 14.117188 12.960938 13.652344 12.578125 13.304688 C 12.195312 12.960938 11.6875 12.789062 11.054688 12.789062 L 8.636719 12.789062 L 8.636719 19.257812 L 9.773438 19.257812 Z M 6 26 L 26 26 L 26 6 L 6 6 Z M 30.667969 8.667969 L 30.667969 7.332031 L 27.332031 7.332031 L 27.332031 5.332031 C 27.332031 4.964844 27.035156 4.667969 26.667969 4.667969 L 24.667969 4.667969 L 24.667969 1.332031 L 23.332031 1.332031 L 23.332031 4.667969 L 20.667969 4.667969 L 20.667969 1.332031 L 19.332031 1.332031 L 19.332031 4.667969 L 16.667969 4.667969 L 16.667969 1.332031 L 15.332031 1.332031 L 15.332031 4.667969 L 12.667969 4.667969 L 12.667969 1.332031 L 11.332031 1.332031 L 11.332031 4.667969 L 8.667969 4.667969 L 8.667969 1.332031 L 7.332031 1.332031 L 7.332031 4.667969 L 5.332031 4.667969 C 4.964844 4.667969 4.667969 4.964844 4.667969 5.332031 L 4.667969 7.332031 L 1.332031 7.332031 L 1.332031 8.667969 L 4.667969 8.667969 L 4.667969 11.332031 L 1.332031 11.332031 L 1.332031 12.667969 L 4.667969 12.667969 L 4.667969 15.332031 L 1.332031 15.332031 L 1.332031 16.667969 L 4.667969 16.667969 L 4.667969 19.332031 L 1.332031 19.332031 L 1.332031 20.667969 L 4.667969 20.667969 L 4.667969 23.332031 L 1.332031 23.332031 L 1.332031 24.667969 L 4.667969 24.667969 L 4.667969 26.667969 C 4.667969 27.035156 4.964844 27.332031 5.332031 27.332031 L 7.332031 27.332031 L 7.332031 30.667969 L 8.667969 30.667969 L 8.667969 27.332031 L 11.332031 27.332031 L 11.332031 30.667969 L 12.667969 30.667969 L 12.667969 27.332031 L 15.332031 27.332031 L 15.332031 30.667969 L 16.667969 30.667969 L 16.667969 27.332031 L 19.332031 27.332031 L 19.332031 30.667969 L 20.667969 30.667969 L 20.667969 27.332031 L 23.332031 27.332031 L 23.332031 30.667969 L 24.667969 30.667969 L 24.667969 27.332031 L 26.667969 27.332031 C 27.035156 27.332031 27.332031 27.035156 27.332031 26.667969 L 27.332031 24.667969 L 30.667969 24.667969 L 30.667969 23.332031 L 27.332031 23.332031 L 27.332031 20.667969 L 30.667969 20.667969 L 30.667969 19.332031 L 27.332031 19.332031 L 27.332031 16.667969 L 30.667969 16.667969 L 30.667969 15.332031 L 27.332031 15.332031 L 27.332031 12.667969 L 30.667969 12.667969 L 30.667969 11.332031 L 27.332031 11.332031 L 27.332031 8.667969 Z M 30.667969 8.667969 "/>
</svg>

<svg role="img" viewBox="0 0 32 32" xmlns="http://www.w3.org/2000/svg"><path d="M20.219 19.258h-1.102v-4.754h.914l.114.523q.878-.66 1.828-.66c.453 0 .8.117 1.035.36q.356.357.355 1.039v3.492h-1.101v-3.149q0-.456-.188-.668-.181-.209-.594-.207-.62 0-1.261.41Zm-4.387.137a4.5 4.5 0 0 1-1.793-.372v-.878c.68.23 1.27.347 1.762.347.926 0 1.383-.398 1.383-1.195q.002-.58-.348-.844c-.23-.18-.602-.265-1.106-.265-.378 0-.851.027-1.418.09v-.708l.176-2.78h3.508v.886h-2.469l-.105 1.726q.38-.076.808-.078.973 0 1.528.528.556.522.558 1.425c0 .649-.226 1.16-.671 1.547q-.675.57-1.813.57m-6.059-5.73h1.16q1.063 0 1.063 1.073 0 1.074-1.09 1.075H9.773Zm0 3.023h1.141l1.512 2.57h1.136l-1.667-2.766q.615-.24.937-.699.321-.457.32-1.09 0-.878-.574-1.398-.574-.516-1.523-.516H8.637v6.469h1.136ZM6 26h20V6H6ZM30.668 8.668V7.332h-3.336v-2a.664.664 0 0 0-.664-.664h-2V1.332h-1.336v3.336h-2.664V1.332h-1.336v3.336h-2.664V1.332h-1.336v3.336h-2.664V1.332h-1.336v3.336H8.668V1.332H7.332v3.336h-2a.664.664 0 0 0-.664.664v2H1.332v1.336h3.336v2.664H1.332v1.336h3.336v2.664H1.332v1.336h3.336v2.664H1.332v1.336h3.336v2.664H1.332v1.336h3.336v2c0 .367.297.664.664.664h2v3.336h1.336v-3.336h2.664v3.336h1.336v-3.336h2.664v3.336h1.336v-3.336h2.664v3.336h1.336v-3.336h2.664v3.336h1.336v-3.336h2a.664.664 0 0 0 .664-.664v-2h3.336v-1.336h-3.336v-2.664h3.336v-1.336h-3.336v-2.664h3.336v-1.336h-3.336v-2.664h3.336v-1.336h-3.336V8.668Zm0 0" fill="rgb(83.137256%, 35.686275%, 2.745098%)" fill-rule="evenodd"/></svg>
